X:1
T:Title
%%score [ ( 1 2 ) ( 3 4 ) ]
L:1/8
Q:1/4=120
M:4/4
K:Bb
V:1 treble nm="Midi_74"
V:2 treble 
V:3 treble nm="Midi_74"
V:4 treble 
V:1
 B8 | B4 A4 | G8 || F8 | F4 d4 | c4 B4 | A8 || B8 | c4 d4 | e8 || %10
"^Richard Thiele\n(1847-1903)" A8 | B4 d4 | c4 c4 | B8 |] %14
V:2
 F8 | G4 F4 | E8 || E8 | D4 F4 | ^F4 G4 | ^F8 || G8 | G4 F4 | E8 || E8 | D4 F4 | G4 (F2 E2) | D8 |] %14
V:3
 D8 | D4 D4 | B,8 || A,8 | B,4 D4 | D4 D4 | D8 || D8 | C4 =B,4 | C8 || C8 | B,4 B,4 | B,4 A,4 | %13
 B,8 |] %14
V:4
 B,,8 | G,4 D,4 | E,8 || F,8 | B,,4 B,4 | A,4 G,4 | D,8 || G,8 | E,4 D,4 | C,8 || F,8 | G,4 D,4 | %12
 E,4 F,4 | [B,,F,]8 |] %14

